X: 53
T:Mr Franks' Minuet. HA.052
M:3/4
L:1/8
Q:120
C:in Hand B
S:Henry Atkinson's original MS,Hartburn,N'umberland,1694.
R:Minuet
O:England
A:Hartburn,Northumberland
H:1/8
Z:vmp.Chris Partington.Jan.2004
K:F
f2f2c2|gfgag2|a2bagf|gfgag2|!
f2f2c2|gfgag2|a2bagf|g6:|!
|:g2gfe2|agaba2|c2d2e2|gfgag2|!
c2d2e2|fefga2|gfe3f|f6:|]
